packages/kaspersky-hexa-ui-icons/src/iconsSVGs/24/Number.svg

<svg width="24" height="24" viewBox="0 0 24 24" fill="none" xmlns="http://www.w3.org/2000/svg">
<path fill-rule="evenodd" clip-rule="evenodd" d="M2 9C2 8.44772 2.44772 8 3 8H5C5.55228 8 6 8.44772 6 9V15C6 15.5523 5.55228 16 5 16C4.44772 16 4 15.5523 4 15V10H3C2.44772 10 2 9.55228 2 9ZM8 9C8 8.44772 8.44772 8 9 8H13C13.5523 8 14 8.44772 14 9V12C14 12.5523 13.5523 13 13 13H10V14H13C13.5523 14 14 14.4477 14 15C14 15.5523 13.5523 16 13 16H9C8.44772 16 8 15.5523 8 15V12C8 11.4477 8.44772 11 9 11H12V10H9C8.44772 10 8 9.55228 8 9ZM16 9C16 8.44772 16.4477 8 17 8H21C21.5523 8 22 8.44772 22 9V15C22 15.5523 21.5523 16 21 16H17C16.4477 16 16 15.5523 16 15C16 14.4477 16.4477 14 17 14H20V13H18.5C17.9477 13 17.5 12.5523 17.5 12C17.5 11.4477 17.9477 11 18.5 11H20V10H17C16.4477 10 16 9.55228 16 9Z" fill="black"/>
</svg>

<svg xmlns="http://www.w3.org/2000/svg" width="24" height="24" fill="none" viewBox="0 0 24 24"><path fill="#000" fill-rule="evenodd" d="M2 9c0-.5523.4477-1 1-1h2c.5523 0 1 .4477 1 1v6c0 .5523-.4477 1-1 1s-1-.4477-1-1v-5H3c-.5523 0-1-.4477-1-1m6 0c0-.5523.4477-1 1-1h4c.5523 0 1 .4477 1 1v3c0 .5523-.4477 1-1 1h-3v1h3c.5523 0 1 .4477 1 1s-.4477 1-1 1H9c-.5523 0-1-.4477-1-1v-3c0-.5523.4477-1 1-1h3v-1H9c-.5523 0-1-.4477-1-1m8 0c0-.5523.4477-1 1-1h4c.5523 0 1 .4477 1 1v6c0 .5523-.4477 1-1 1h-4c-.5523 0-1-.4477-1-1s.4477-1 1-1h3v-1h-1.5c-.5523 0-1-.4477-1-1s.4477-1 1-1H20v-1h-3c-.5523 0-1-.4477-1-1"/></svg>
